X:5
T:Scotland The Brave
T:Demonstrating the Bagpipe Mode and Output Formatting
%%titleleft
%%titlefont Helvetica-Bold 24
%%subtitlefont Helvetica-Bold 16
%%composerspace 0.4cm
%%composerfont Helvetica 13
%%staffwidth 5.5in
%%scale 0.75
%%staffsep 55
C:Trad.
C:from PS file by Alan S. Watt
P:March
L:1/8
M:4/4
K:HP
e|{g}A2 {GdGe}A>B {gcd}c{e}A {gcd}ce| {ag}a2{g}a2 {GdG}ae {gcd}c{e}A|
   {Gdc}d2 {g}f>d {gcd}ce {gcd}c{e}A|{GdG}B2{gef}e2{A}e>f {g}e/>d/{g}c/>B/|
{g}A2 {GdGe}A>B {gcd}c{e}A {gcd}ce| {ag}a2{g}a2 {GdG}ae {gcd}c{e}A|
   {Gdc}d2 {g}f>d {gcd}ce {gcd}c{e}A|{GdG}B2{g}A>B {G}A2 {gcd}ce||

%%vskip 1cm
%%textfont Times-Roman 16
%%begintext
Summary of changes:

- Bass and alto clefs.
- Vocals.
- In-line info fields can be coded using [...].
- Subtitles now printed without "or:".
- Can be more than one composer field.
- Predefined formats: standard, pretty, pretty2 (flag -p, -P).
- Format page layout by .fmt file selected with flag -F.
- Format page layout by %%-pseudocomments in abc file.
- Other pseudocomments: %%sep, %%vskip, %%newpage.
- Text output using %%text, %%center, and %%begintext .. %%endtext.
- "x" functions like a rest but is invisible on the page.
- Bagpipe mode for K:HP.
%%endtext
